poeticsoft-minimal-theme/assets/images/home-alt.svg

<?xml version="1.0" encoding="utf-8"?>
<!-- Generator: Adobe Illustrator 26.5.0, SVG Export Plug-In . SVG Version: 6.00 Build 0)  -->
<svg version="1.1" id="Capa_1" xmlns="http://www.w3.org/2000/svg" xmlns:xlink="http://www.w3.org/1999/xlink" x="0px" y="0px"
	 viewBox="0 0 24 24" style="enable-background:new 0 0 24 24;" xml:space="preserve">
<style type="text/css">
	.st0{fill:#FFFFFF;}
</style>
<path class="st0" d="M20,8L20,8l-6-5.3c-1.1-1-2.9-1-4,0L4,8c-0.6,0.6-1,1.4-1,2.3V19c0,1.7,1.3,3,3,3h12c1.7,0,3-1.3,3-3v-8.8
	C21,9.4,20.6,8.6,20,8z M14,20h-4v-5c0-0.6,0.4-1,1-1h2c0.6,0,1,0.4,1,1V20z M19,19c0,0.6-0.4,1-1,1h-2v-5c0-1.7-1.3-3-3-3h-2
	c-1.7,0-3,1.3-3,3v5H6c-0.6,0-1-0.4-1-1v-8.8C5,10,5.1,9.7,5.3,9.5l6-5.2c0.4-0.3,0.9-0.3,1.3,0l6,5.2C18.9,9.7,19,10,19,10.2V19z"
	/>
</svg>

<svg xmlns="http://www.w3.org/2000/svg" viewBox="0 0 24 24"><path fill="#000000" d="M20,8h0L14,2.74a3,3,0,0,0-4,0L4,8a3,3,0,0,0-1,2.26V19a3,3,0,0,0,3,3H18a3,3,0,0,0,3-3V10.25A3,3,0,0,0,20,8ZM14,20H10V15a1,1,0,0,1,1-1h2a1,1,0,0,1,1,1Zm5-1a1,1,0,0,1-1,1H16V15a3,3,0,0,0-3-3H11a3,3,0,0,0-3,3v5H6a1,1,0,0,1-1-1V10.25a1,1,0,0,1,.34-.75l6-5.25a1,1,0,0,1,1.32,0l6,5.25a1,1,0,0,1,.34.75Z"/></svg>
